!!!OTL: 838a. Die Spinnerin.
!!!ODT: 1836
!!!ARE: Europa, Mitteleuropa, Deutschland, Bergisches Land; Kleve
!!!SCT: E0838
!!!TXL: @@DE
!!!YEM: Copyright 1995, estate of Helmut Schaffrath.
**kern	**text
*ICvox	*
*M3/8	*
*k[f#c#]	*
*D:	*
!LO:TX:a:t=Munter.	!
!LO:TX:a:t=Mündl. aus dem Bergiſchen u. Cleviſchen 1836.	!
{8a	Spinn,
=1	=1
8dd	ſpinn,
16dd	mei-
16cc#	-ne
16dd	lie-
16b	-be
=2	=2
8a	Tochter!
8f#}	.
{8a	Jch
=3	=3
8g	kauf
8e	dir'a
8a	Paar
=4	=4
4d}	Schuh.
{8a	"Ach
=5	=5
8dd	ja,
16dd	mei-
16cc#	-ne
16dd	lie-
16b	-be
=6	=6
8a	Mutter,
8f#}	.
{8a	auch
=7	=7
8g	Schnallen
8e	.
8a	da-
=8	=8
4d}	-ʒu.
{8d	Jch
=9	=9
8f#	kann
8f#	ja
8f#	nicht
=10	=10
8a	ſpinnen,
8a}	.
{8d	es
=11	=11
8f#	ſchmerʒt
8f#	mich
8f#	mein
=12	=12
8a	Fin-
8a}	-ger
{8a	und
=13	=13
4dd	thut,
8a	und
=14	=14
4dd}	thut,
{8a	und
=15	=15
8g	thut
8f#	mir
8e	ſo
=16	=16
4d}	weh!
{8d	Jch
=17	=17
8f#	kann
8f#	ja
8f#	nicht
=18	=18
8a	ſpinnen,
8a}	.
{8d	es
=19	=19
8f#	ſchmerʒt
8f#	mich
8f#	mein
=20	=20
8a	Fin-
8a}	-ger
{8a	und
=21	=21
4dd	thut,
8a	und
=22	=22
4dd}	thut,
{8a	und
=23	=23
8g	thut
8f#	mir
8e	ſo
=24	=24
4d}	weh!"
==	==
!!!AGN: Hochzeits -, Ehestands - Lied
!!!ONB: ESAC (Essen Associative Code) Database: ERK2
!!!AMT: simple triple
!!!AIN: vox
!!!EED: Helmut Schaffrath
!!!EEV: 1.0
!!!GTL: Hochzeits- und Ehrstandslieder, nebst Nonnenklagen
!!!URL-scan: https://rosdok.uni-rostock.de/mcrviewer/recordIdentifier/rosdok_ppn745177662/iview2/phys_0644.iview2?x=144.10897380243205&y=601.5832807957195&scale=0.7029437510502773&rotation=0&layout=singlePageLayout
!!!ENC: Anna Maria Matuszewska
!!!EEV: 2024/12/18
*-	*-
